X: 30889
T: Out The Gap
R: waltz
M: 3/4
K: Dmajor
dc|:B2B cdc|B2 B cde|f2 f edc|
B2 B cdc|BcB AFG|ABA GFE|1 D4:|2 D3 EFG||
A2 d2 fd|ed d2 dA|BdB AFE|E3 FAB|
c3 ded|dc c3 B|ABc BAG|F3 EFG|
A2 d2 fd|ed d2 dA|BdB AFA|G6|
GBc def|edc BAG|ABA GFE|D6||

